X:1
T:That Sweet Story
T:That Sweet Story
T:Edwin Othello Excell
T:James Rowe, 1905
T:Public Domain Courtesy of the Cyber Hymnal™
T:Public Domain Courtesy of the Cyber Hymnal™
C:Edwin Othello Excell
Z:Public Domain
Z:Courtesy of the Cyber Hymnal™
%%score ( 1 2 ) ( 3 4 )
L:1/8
Q:1/4=79
M:6/8
K:D
V:1 treble 
V:2 treble 
V:3 bass 
V:4 bass 
V:1
 [DF]/[EG]/ | [FA]>[^E^G][FA] [C=E]>[CF][CE] | D>[DF][DB] [DA]2 [DF]/[CG]/ | %3
w: 1.~I once|heard a sweet sto- ry of|won- der- ful love, And it|
w: 2.~Tho’ a-|far I had wan- dered in|dark- ness and sin, And tho’|
w: 3.~That sweet|sto- ry of Je- sus who|died on the tree Will be|
 [DA]>[CE][DF] [CG]>[CF][CE] | [DF]3- [DF]2 [DF]/[EG]/ | [FA]>[^E^G][FA] [C=E]>[CF][CE] | %6
w: lift- ed the cross that I|bore, * Made me|think of the home and the|
w: help- less, and wea- ry, and|poor, * This sweet|sto- ry left light, hope and|
w: told on e- ter- ni- ty’s|shore; * How He|came as a ran- som for|
 D>[DF][DB] [DA]2 [FA]/[FA]/ | [E^G]>[DF][DE] [Ed]>[Ec][EB] | A3- !fermata![=GA]2 || %9
w: dear ones a- bove, I am|long- ing to hear it once|more. *|
w: glad- ness with- in; I am|long- ing to hear it once|more. I|
w: you and for me, I am|long- ing to hear it once|more. *|
"^Refrain" [GB]/[Gc]/ | [Fd]>[Fd][Fd] [Gc]>[Gc][GA] | [GB]3- [GB]2 [GA] | %12
w: |||
w: * am|long- ing to hear it once|more, * The|
w: |||
 [GB]>[Gc][Gd] [Gc]>[FB]F | [FA]3- [FA]2 [DF]/[DF]/ | [EG]>[^DF][EG] (c>B)[GA] | %15
w: |||
w: sto- ry re- peat o’er and|o’er; * It is|rap- ture di- vine * to|
w: |||
 [FA]>[DF][DA] !fermata![Dd]2 D/[DE]/ | [DF]<!fermata![DA][DF] [CG]>[DF][CE] | D3- D2 |] %18
w: |||
w: know He is mine; I am|long- ing to hear it once|more. *|
w: |||
V:2
 x | x6 | D3/2 x9/2 | x6 | x6 | x6 | D3/2 x9/2 | x6 | E2 F x2 || x | x6 | x6 | x5 F | x6 | %14
 x3 G2 x | x5 D/ x/ | x6 | D3- D2 |] %18
V:3
 [D,A,]/[D,A,]/ | [D,D]>[D,D][D,D] [G,A,]>[G,A,][G,A,] | %2
w: ~ ~|~ ~ ~ ~ ~ ~|
 [F,A,]>[D,A,][D,G,] [D,F,]2 [D,A,]/[E,A,]/ | [F,A,]>[G,A,][F,A,] [E,A,]>[A,,A,][A,,A,] | %4
w: ~ ~ ~ ~ ~ ~|~ ~ ~ ~ ~ ~|
 [D,A,]3- [D,A,]2 [D,A,]/[D,A,]/ | [D,D]>[D,D][D,D] [G,A,]>[G,A,][G,A,] | %6
w: ~ * ~ ~|~ ~ ~ ~ ~ ~|
 [F,A,]>[D,A,][D,G,] [D,F,]2 [D,A,]/[D,D]/ | [E,D]>[E,A,][E,^G,] [E,G,]>[E,A,][E,D] | %8
w: ~ ~ ~ ~ ~ ~|~ ~ ~ ~ ~ ~|
 (C2 D !fermata![A,E]2) || [A,C]/[A,E]/ | [D,D]>[D,A,][D,A,] [E,A,]>[E,A,][E,C] | %11
w: ~ * *|* ~|~ ~ ~ ~ ~ ~|
 [A,C]2 [A,C] [A,C]2 [A,C] | [A,C]>[A,E][A,B,] [A,E]>[A,D][A,D] | %13
w: ~ ~ once more;|~ ~ ~ ~ ~ ~|
 [D,D]2 [D,D]/[D,D]/ [D,D]2 [D,A,]/[D,A,]/ | [A,,A,]>[A,,A,][A,,A,] [A,,A,]2 [A,,A,] | %15
w: ~ ~ I am sure; *||
 [D,A,]>[D,A,][D,F,] !fermata![A,,F,]2 [B,,F,]/[B,,^G,]/ | %16
w: |
 [A,,A,]<!fermata![A,,F,][A,,A,] [A,,B,]>[A,,A,][A,,G,] | [D,F,]3- [D,F,]2 |] %18
w: ||
V:4
 x | x6 | x6 | x6 | x6 | x6 | x6 | x6 | A,3- x2 || x | x6 | x6 | x6 | x6 | x6 | x6 | x6 | x5 |] %18

